!!!COM:      Bach, Johann Sebastian
!!!CDT:      1685/03/31/-1750/07/28/
!!!OPR@@GER: Das wohltemperirte Clavier
!!!OVM@@GER: Band I
!!!OPR@ENG:  Well-Tempered Clavier
!!!OVM@ENG:  Book I
!!!OTL:      Prelude
!!!OKY:      G minor
!!!ONM:      no. 16
!!!SCT:      BWV 861
!!!OMV:      1
**kern	**kern	**kern	**kern
*clefF4	*clefF4	*	*clefG2
*k[b-e-]	*k[b-e-]	*	*k[b-e-]
*g:	*g:	*	*g:
*M4/4	*M4/4	*	*M4/4
*met(c)	*met(c)	*	*met(c)
*MM45	*MM45	*MM45	*MM45
=1-	=1-	=1-	=1-
8G	16B-	1ryy	[1ggT
.	16d	.	.
8G	16c	.	.
.	16e-	.	.
8G	16B-	.	.
.	16d	.	.
8G	16A	.	.
.	16c	.	.
8G	16B-	.	.
.	16d	.	.
8G	16c	.	.
.	16e-	.	.
8G	16B-	.	.
.	16d	.	.
8G	16A	.	.
.	16c	.	.
=2	=2	=2	=2
[1G	8B-	1ryy	16gg]
.	.	.	16dd
.	8c	.	32ee-
.	.	.	32dd
.	.	.	16cc
.	8B-	.	16dd
.	.	.	16gg
.	8e-	.	32cc
.	.	.	32b-
.	.	.	16a
.	8d	.	16b-
.	.	.	16gg
.	8e-	.	32cc
.	.	.	32b-
.	.	.	16a
.	8d	.	16b-
.	.	.	16gg
.	8c	.	32a
.	.	.	32g
.	.	.	16f#
=3	=3	=3	=3
8.G]	16B-	1ryy	[1gT
.	16c	.	.
.	[8d	.	.
16F	.	.	.
8E-	16d]	.	.
.	8c	.	.
8D	.	.	.
.	[16B-	.	.
8C	16B-]	.	.
.	8A	.	.
8D	.	.	.
.	[16B-	.	.
8E-	16B-]	.	.
.	8c	.	.
8D	.	.	.
.	16B-	.	.
=4	=4	=4	=4
2C#	8A	1ryy	16g]
.	.	.	16een
.	8G	.	32b-
.	.	.	32a
.	.	.	16g
.	8En	.	16a
.	.	.	16ee
.	[8A	.	32g
.	.	.	32f#
.	.	.	16en
8.D	16A]	.	8.f#X
.	16cn	.	.
.	[8B-	.	.
16D	.	.	16g
8Cn	16B-]	.	16f#
.	8A	.	16a
8BB-	.	.	32dd
.	.	.	32cc
.	[16G	.	16b-
=5	=5	=5	=5
4.AA	8G]	1ryy	16cc
.	.	.	16ee-
.	8G	.	32dd
.	.	.	32cc
.	.	.	16b-
.	4F#	.	16cc
.	.	.	16aa
8D	.	.	32cc
.	.	.	32b-
.	.	.	16a
4.GG	8r	.	16b-
.	.	.	16dd
.	8D	.	32cc
.	.	.	32b-
.	.	.	16a
.	4En	.	16b-
.	.	.	16gg
8C	.	.	32b-
.	.	.	32a
.	.	.	16g
=6	=6	=6	=6
4FF	8F	1ryy	16a
.	.	.	16f
.	8G	.	32b-
.	.	.	32cc
.	.	.	16dd
4ryy	8A	.	16cc
.	.	.	16f
.	8B-	.	32dd
.	.	.	32ee-
.	.	.	16ff
2ryy	8c	.	16ee-
.	.	.	16cc
.	8B-	.	32gg
.	.	.	32aa
.	.	.	16bb-
.	8c	.	32aa
.	.	.	32bb-
.	.	.	16ccc
.	8A	.	32ff
.	.	.	32gg
.	.	.	16ee-
=7	=7	=7	=7
*	*	*staff:12	*
*	*	*clefG2	*
*	*	*k[b-e-]	*
[1B-T	1ryy	8dd	16r
.	.	.	16bb-
.	.	8ee-	16gg
.	.	.	16bb-
.	.	8dd	16ff
.	.	.	16bb-
.	.	8cc	16ee-
.	.	.	16bb-
.	.	8dd	16ff
.	.	.	16bb-
.	.	8ee-	16gg
.	.	.	16bb-
.	.	8dd	16ff
.	.	.	16bb-
.	.	8cc	16ee-
.	.	.	16aa
=8	=8	=8	=8
16B-]	1ryy	8dd	2.bb-
16BB-	.	.	.
32C	.	8ee-	.
32D	.	.	.
16E-	.	.	.
16D	.	8ff	.
16BB-	.	.	.
32E-	.	8gg	.
32F	.	.	.
16G	.	.	.
16F	.	8dd	.
16BB-	.	.	.
32G	.	[8ee-	.
32A-	.	.	.
16B-	.	.	.
32A-	.	16ee-]	[4ff
32B-	.	.	.
16A-	.	16dd	.
32G	.	16bn	.
32A-	.	.	.
16F	.	16dd	.
=9	=9	=9	=9
8Bn	1ryy	[4g	16ff]
.	.	.	32gg
.	.	.	32ff
8G	.	.	32ee-
.	.	.	32ff
.	.	.	16dd
8c	.	16g]	[4ee-
.	.	32cc	.
.	.	32b-X	.
8B-	.	32a-	.
.	.	32b-	.
.	.	16cc	.
8A-	.	[4f	16ee-]
.	.	.	32ff
.	.	.	32ee-
8F	.	.	32dd
.	.	.	32ee-
.	.	.	16cc
8B-	.	16f]	[4dd
.	.	32b-	.
.	.	32a-X	.
8A-	.	32g	.
.	.	32a-	.
.	.	16b-	.
=10	=10	=10	=10
8G	1ryy	[4e-	16dd]
.	.	.	32ee-
.	.	.	32dd
8E-	.	.	32cc
.	.	.	32dd
.	.	.	16bn
8A-	.	16e-]	[4cc
.	.	32a-	.
.	.	32g	.
8G	.	32f	.
.	.	32g	.
.	.	16a-	.
8F	.	[4d	16cc]
.	.	.	32dd
.	.	.	32cc
8D	.	.	32bn
.	.	.	32cc
.	.	.	16an
8G	.	16d]	4bn
.	.	32e-	.
.	.	32f	.
8GG	.	32e-	.
.	.	32f	.
.	.	16d	.
=11	=11	=11	=11
[1CT	1ryy	8e-	16r
.	.	.	16cc
.	.	8f	16a-
.	.	.	16cc
.	.	8e-	16g
.	.	.	16cc
.	.	8d	16f
.	.	.	16cc
.	.	8e-	16g
.	.	.	16cc
.	.	8f	16a-X
.	.	.	16cc
.	.	8e-	16g
.	.	.	16cc
.	.	8d	16f
.	.	.	16bn
=12	=12	=12	=12
16C]	1ryy	8e-	4cc
32GG	.	.	.
32FF	.	.	.
32EE-	.	4g	.
32FF	.	.	.
16GG	.	.	.
16CC	.	.	[4ee-
32c	.	.	.
32B-	.	.	.
32An	.	[8cc	.
32B-	.	.	.
16c	.	.	.
2F#	.	4cc_	16ee-]
.	.	.	32aa
.	.	.	32gg
.	.	.	32ff#
.	.	.	32gg
.	.	.	16aa
.	.	16.cc]	16dd
.	.	.	8.ee-
.	.	32cc	.
.	.	32a	.
.	.	32b-	.
.	.	16cc	.
=13	=13	=13	=13
16G	1ryy	8b-	8dd
32D	.	.	.
32C	.	.	.
32BB-	.	8f#	8cc
32C	.	.	.
16D	.	.	.
16GG	.	8g	[4b-
32G	.	.	.
32F	.	.	.
32E-	.	8d	.
32F	.	.	.
16G	.	.	.
2C	.	[2e-	16b-]
.	.	.	32ee-
.	.	.	32dd
.	.	.	32cc
.	.	.	32dd
.	.	.	16ee-
.	.	.	16a-
.	.	.	32cc
.	.	.	32b-
.	.	.	32a-
.	.	.	32b-
.	.	.	16cc
=14	=14	=14	=14
16D	1ryy	4e-]	4f#
32A	.	.	.
32B-	.	.	.
32c	.	.	.
32B-	.	.	.
16A	.	.	.
8B-	.	4d	16r
.	.	.	32g
.	.	.	32a
8D	.	.	32b-
.	.	.	32a
.	.	.	16g
8A	.	16r	4cc
.	.	32f#X	.
.	.	32g	.
8D	.	32a	.
.	.	32g	.
.	.	16f#	.
8G	.	16r	4b-
.	.	32en	.
.	.	32f#X	.
8D	.	32g	.
.	.	32f#	.
.	.	16e	.
=15	=15	=15	=15
8F#	1ryy	16r	4a
.	.	32d	.
.	.	32en	.
8D	.	32f#	.
.	.	32e	.
.	.	16d	.
8En	.	16r	4g
.	.	32c#	.
.	.	32d	.
8D	.	32en	.
.	.	32d	.
.	.	16c#	.
16Cn	.	4d	4f#X
32A	.	.	.
32G	.	.	.
32F#X	.	.	.
32G	.	.	.
16A	.	.	.
8BB-	.	4r	16r
.	.	.	16gg
8BBn	.	.	32ffn
.	.	.	32ee-
.	.	.	16dd
=16	=16	=16	=16
16C	1ryy	2ryy	16ee-
16A	.	.	16ccc
16BB-X	.	.	32dd
.	.	.	32cc
16G	.	.	16b-
16AA	.	.	16cc
16F#	.	.	16aa
16GG	.	.	32b-
.	.	.	32a
16E-X	.	.	16g
8FF#X	.	4ryy	16a
.	.	.	32ee-
.	.	.	32dd
8DD	.	.	32cc
.	.	.	32b-
.	.	.	16a
8GG	.	16r	[4b-
.	.	32a	.
.	.	32g	.
8G	.	32f	.
.	.	32e-	.
.	.	16d	.
=17	=17	=17	=17
*	*staff:3	*	*
4C	8r	4e-	16b-]
.	.	.	32cc
.	.	.	32b-
.	8c	.	32a-
.	.	.	32cc
.	.	.	16f#
16r	4B-	4en	[4g
32C#	.	.	.
32D	.	.	.
32En	.	.	.
32D	.	.	.
16C#	.	.	.
4r	2D	16r	4g]
.	.	32An	.
.	.	32B-	.
.	.	32c	.
.	.	32B-	.
.	.	16A	.
4DD	.	16r	4f#X
.	.	32c	.
.	.	32d	.
.	.	32e-	.
.	.	32d	.
.	.	16c	.
=18	=18	=18	=18
[1GG	4r	8B-	16r
.	.	.	32d
.	.	.	32g
.	.	8Bn	32fn
.	.	.	32e-
.	.	.	16d
.	16r	8c	8e-
.	32C	.	.
.	32G	.	.
.	32F	8Bn	8d
.	32E-	.	.
.	16D	.	.
.	[2E-	[2c	16r
.	.	.	32g
.	.	.	32cc
.	.	.	32b-
.	.	.	32a
.	.	.	16g
.	.	.	16a
.	.	.	32cc
.	.	.	32a
.	.	.	32g
.	.	.	32f#
.	.	.	16en
=19	=19	=19	=19
4GG]	16E-]	4c_	2f#
.	32E-	.	.
.	32D	.	.
.	32C	.	.
.	32D	.	.
.	[16E-	.	.
[4GG	4E-]	16c]	.
.	.	32d	.
.	.	32e-	.
.	.	32d	.
.	.	32e-	.
.	.	[16c	.
2GG]	2D	16c]	2g;
.	.	32c	.
.	.	32Bn	.
.	.	32A	.
.	.	32B	.
.	.	16c	.
.	.	4Bt	.
==	==	==	==
*-	*-	*-	*-
!!!AFR:  prelude
!!!EFL:  31/96
!!!END:  1994/01/16/
!!!VID:  4254722438 Bach, BWV 861-01
!!!AST:  Baroque
!!!OCY:  Deutschland
!!!ODT:  1722///
!!!PDT:  1801///
!!!EED:  Walter Hewlett
!!!ENC:  Walter Hewlett
!!!YOR:  Bach Gesellschaft Edition xiv
!!!AFT:  enhanced SCORE
!!!RDT:  2011/10/07/ by Andreas Kornstaedt using massScr2hmd
!!!SCA1: Thematisch-systematisches Verzeichnis der musikalischen Werke 
!!!SCA2: Johann Sebastian Bach: Bach-Werke-Verzeichnis (Schmieder)
!!!YEC1: Copyright 1994, 2000 Center for Computer Assisted Research 
!!!YEC2: in the Humanities
!!!YEM1: Rights to all derivative editions reserved.
!!!YEM2: Refer to licensing agreement for further details.
!!!YEN:  United States of America
!!!ref:  @{OTL}, @{SCT}
!!muse2ps: T^@{OTL} @{ONM} in @{OKY}^C^J.S. Bach\n@{SCT}-@{OMV}^
!!muse2ps: u^@{OPR@ENG}, @{OVM@ENG}^j
